svg/tasks.svg

<svg xmlns="http://www.w3.org/2000/svg" viewBox="0 0 32 32"><path d="M5 5v6h22V5H5zm6 2h14v2H11V7zm-6 6v6h22v-6H5zm16 2h4v2h-4v-2zM5 21v6h22v-6H5zm11 2h9v2h-9v-2z"/></svg>

<svg xmlns="http://www.w3.org/2000/svg" viewBox="0 0 32 32" enable-background="new 0 0 32 32"><path d="M 5 5 L 5 6 L 5 10 L 5 11 L 6 11 L 26 11 L 27 11 L 27 10 L 27 6 L 27 5 L 26 5 L 6 5 L 5 5 z M 11 7 L 25 7 L 25 9 L 11 9 L 11 7 z M 5 13 L 5 14 L 5 18 L 5 19 L 6 19 L 26 19 L 27 19 L 27 18 L 27 14 L 27 13 L 26 13 L 6 13 L 5 13 z M 21 15 L 25 15 L 25 17 L 21 17 L 21 15 z M 5 21 L 5 22 L 5 26 L 5 27 L 6 27 L 26 27 L 27 27 L 27 26 L 27 22 L 27 21 L 26 21 L 6 21 L 5 21 z M 16 23 L 25 23 L 25 25 L 16 25 L 16 23 z" color="#000" overflow="visible" enable-background="accumulate"/></svg>
